X:1
T:Komm, heil'ger Geist
T:Komm, heil'ger Geist
T:Dmitri Bortniansky
T:CPDL   —   Creative Commons Attribution Non Commercial 3.0
T:CPDL   —   Creative Commons Attribution Non Commercial 3.0
T:CPDL   —   Creative Commons Attribution Non Commercial 3.0
T:CPDL   —   Creative Commons Attribution Non Commercial 3.0
C:Dmitri Bortniansky
Z:CPDL   —   Creative Commons Attribution Non Commercial 3.0
%%score [ ( 1 2 ) 3 4 ]
L:1/8
Q:1/4=100
M:4/4
K:Eb
V:1 treble nm="Sopran\nAlt"
V:2 treble 
V:3 treble-8 nm="Tenor"
V:4 bass nm="Bass"
V:1
"^Mäßig bewegt"!p!"^Soli; Wiederholung Chor" B4 B2 B2 | G6 G2 |!<(! A2 B2 c2 d2!<)! | %3
w: Komm, heil'- ger|Geist, er-|fül- le uns'- re|
!>(! e4 !breath!e2!>)!!p! B2 |!<(! B4 B4!<)! | (c2 B2 A2) G2 | F4!>(! F4 | E6!>)! z2 | %8
w: Her- zen, die|Her- zen|dei- * * ner|Gläu- bi-|gen.|
!p!!<(! F4 F2!<)! F2 |!>(! G4 F2!>)! F2 |!<(! (G2 F2) G2!<)! =A2 | %11
w: Komm und ent-|zün- de in|ih- * nen das|
!mf!!>(! B4!>)! !breath!B2!mf! B2 |!<(! c4 c4 | d4!<)! c4 |!f! d4 e2 e2 | %15
w: Feu- er, das|Feu- er|dei- ner|gött- li- chen|
!>(! c4 !breath!c2!>)!!f! c2 | (d2 c2 d2) e2 | (f4 e2) d2 |!>(! c8 | B6!>)! z2 :| %20
w: Lie- be, das|Feu- * * er|dei- * ner|Lie-|be.|
!p! G4!<(! A2 B2!<)! | c4!f! B4 | A4 G4 |!>(! A6!>)! z2 |!pp! F4 F2 F2 | (G3 F) F4 | %26
w: Komm, heil'- ger|Geist, er-|leuch- te|uns,|dass wir er-|ken- * nen|
!<(! B4 A2!<)! G2 |!>(! G4 F4!>)! |!p! B2!<(! B2 =A2!<)! B2 | !^!c6 c2 |!f! (d4 c2) B2 | %31
w: un- se- re|Sün- den|und dem ew'- gen|Tod ent-|rin- * nen|
!>(! (B4 =A4) | !breath!B4!>)!!p! !fermata!_A4 |!p! G4!<(! A2 G2!<)! |!<(! F4!<)! G4 | %35
w: mö- *|gen. Komm,|komm, heil'- ger|Geist, komm|
!<(! (E2 F2) G2!<)! A2 |!>(! G4 !breath!F4!>)! |!<(! B4 G2 G2 | c2!<)! d2!f! e2 f2 | d4 e2 e2 | %40
w: stär- * ke die|Dei- nen,|schenk ih- nen|al- len dei- nen|Trost, dei- nen|
 (e4 d4) | e6 z2 |!f!!>(! e8 | e6!>)! z2 |!p! E8 | !fermata!E8 |] %46
w: Frie- *|den!|A-|men|A-|men!|
V:2
 E4 E2 E2 | E6 E2 | D2 E2 E2 F2 | G4 G2 G2 | G4 G4 | (A2 E2 D2) E2 | (E4 D2) D2 | E6 x2 | %8
w: ||||||Gläu- * bi-|gen.|
 D4 D2 D2 | E4 D2 D2 | (E2 F2) E2 E2 | D4 D2 F2 | F4 F4 | F6 F2 | F4 G2 G2 | F4 F2 F2 | F6 =A2 | %17
w: |||||||||
 (B2 _A2 G2) B2 | (B4 =A4) | F6 x2 :| E4 D2 E2 | E4 =E4 | F4 =E4 | F6 x2 | D4 D2 D2 | (E3 D) D4 | %26
w: |||||||||
 G4 F2 E2 | E4 D4 | E2 F2 F2 F2 | F4 F4 | F6 F2 | (G4 F2 E2) | D4 F4 | E4 F2 E2 | (D2 C2) =B,4 | %35
w: |||||||||
 (C2 D2) E2 F2 | E4 D4 | E4 E2 E2 | E2 F2 G2 F2 | F4 E2 E2 | (F6 GA) | G6 x2 | A8 | G6 x2 | C8 | %45
w: ||||||||||
 B,8 |] %46
w: |
V:3
!p! G4 G2 G2 | B6 B2 |!<(! B2 B2 A2 A2!<)! |!>(! B4 !breath!B2!>)!!p! B2 |!<(! e4 e4!<)! | e4 B4 | %6
w: Komm, heil'- ger|Geist, er-|fül- le uns'- re|Her- zen, die|Her- zen|dei- ner|
 (c4!>(! B2) A2 | G6!>)! z2 |!p!!<(! B4 B2!<)! B2 |!>(! B4 B2!>)! B2 |!<(! B4 B2!<)! c2 | %11
w: Gläu- * bi-|gen.|Komm und ent-|zün- de in|ih- nen das|
!mf!!>(! F4!>)! !breath!B2!mf! B2 |!<(! =A4 c4 | B4!<)! =A4 |!f! B4 B2 B2 | %15
w: Feu- er, das|Feu- er|dei- ner|gött- li- chen|
!>(! B4 !breath!=A2!>)!!f! A2 | (B2 =A2 B2) c2 | (d4 e2) f2 |!>(! (g4 f2 e2) | d6!>)! z2 :| %20
w: Lie- be, das|Feu- * * er|dei- * ner|Lie- * *|be.|
!p! B4!<(! B2 B2!<)! | A4!f! B4 | c6 c2 |!>(! c6!>)! z2 |!pp! B4 B2 B2 | B4 B4 |!<(! B4 B2!<)! B2 | %27
w: Komm, heil'- ger|Geist, er-|leuch- te|uns,|dass wir er-|ken- nen|un- se- re|
!>(! B4 B4!>)! |!p! B2!<(! B2 e2!<)! d2 | !^!=A4 c4 |!f! (B4 =A2) B2 |!>(! (B2 c6) | %32
w: Sün- den|und dem ew'- gen|Tod ent-|rin- * nen|mö- *|
 B4!>)! !fermata!z4 |!p! B4!<(! B2 B2!<)! |!<(! (B2 c2)!<)! d4 |!<(! c4 c2!<)! c2 | %36
w: gen.|Komm, heil'- ger|Geist, _ komm|stär- ke die|
!>(! B4 !breath!B4!>)! |!<(! B4 B2 B2 | A2!<)! A2!f! B2 c2 | B4 G2 G2 | (c4 B4) |!>(! B6!>)! z2 | %42
w: Dei- nen,|schenk ih- nen|al- len dei- nen|Trost, dei- nen|Frie- *|den!|
!f!!>(! c8 | B6!>)! z2 |!p! A8 | !fermata!G8 |] %46
w: A-|men|A-|men!|
V:4
!p! E,4 E,2 E,2 | E,6 E,2 |!<(! F,2 G,2 A,2 F,2!<)! |!>(! E,4 !breath!E,2!>)!!p! E,2 | %4
w: |||* * die|
!<(! E,4 E,2 E,2!<)! | A,2 G,2 F,2 E,2 | A,,4!>(! B,,4 | E,6!>)! z2 |!p!!<(! B,,4 B,,2!<)! B,,2 | %9
w: Her- zen, die|Her- zen dei- ner|Gläu- bi-|gen.||
!>(! E,4 B,,2!>)! B,,2 |!<(! (E,2 D,2) E,2!<)! C,2 |!mf!!>(! B,,4!>)! !breath!B,,2!mf! D,2 | %12
w: |||
!<(! F,4 =A,4 | B,4!<)! F,4 |!f! B,,4 E,2 E,2 |!>(! F,4 !breath!F,2!>)!!f! F,2 | B,,4 B,,4 | %17
w: |||* * das|Feu- er|
 (B,,4 C,2) D,2 |!>(! (E,4 F,4) | B,,6!>)! z2 :|!p! E,4!<(! F,2 G,2!<)! | A,4!f! G,4 | F,4 C,4 | %23
w: ||||||
!>(! [F,,F,]6!>)! z2 |!pp! B,,4 B,,2 B,,2 | (E,3 B,,) B,,4 | z2!<(! E,2 F,2!<)! G,A, | %27
w: ||||
!>(! B,4 B,,4!>)! |!p! G,2!<(! D,2 C,2!<)! B,,2 | !^!F,4 =A,4 |!f! B,2 B,,2 C,2 D,2 | %31
w: ||Tod, dem|Tod ent- rin- nen|
!>(! (E,4 F,4) | B,,4!>)! !fermata!z4 |!p! E,4!<(! D,2 E,2!<)! |!<(! (B,,2 A,,2)!<)! G,,4 | %35
w: mö- *|gen.|||
!<(! C,4 C,2!<)! A,,2 |!>(! B,,4 !breath!B,,4!>)! |!<(! G,4 E,2 E,2 | A,2!<)! F,2!f! E,2 A,,2 | %39
w: ||||
 B,,4 C,2 C,2 | (A,,4 B,,4) |!>(! E,6!>)! z2 |!f!!>(! E,8 | E,6!>)! z2 |!p! [E,,E,]8 | %45
w: ||||||
 !fermata![E,,E,]8 |] %46
w: |

